X: 41096
T: Trip To Portugal
R: jig
M: 6/8
K: Dmajor
|:DFA GBd|cde dfg|gaf fgf|edc dAG|
DFA GBd|cde dfg|gaf fgf|1 edc dAF:|2 edc dfg||
afg gfd|edc dAG|FAd Ecd|Gcd dcd|
afg gfd|edc dAG|FAd efg|edc ddd|
afg f2d|edc dAG|FAd Ecd|Gcd dcd|
afg gfd|edc dfd|ded cdc|AEF DDD|

